X:13008
T:Margaret's Waltz
R:Waltz
C:Pat Shaw
O:England
M:3/4
L:1/8
Q:1/4=120
K:G
B2|"G"D3 EGA|"Em"B4 B2|"C"AG E2 G2|"D7"A4 B2|"G"D3 EGA|"Em"B3 c d2|"D7"B4 A2|"G"G4:|
Bc|"G"d3 efd|"Em"g4 g2|"C"ed c2 e2|"D7"d3 cBA|"Em"G3 ABc|"Bm"d4 B2|"C"AG E2 G2|"D7"A4 Bc|
"G"d3 efd|"Em"g3 f e2|"Am"d2 c2 B2|"D7"A4 B2|"G"D3 EGA|"Em"B3 c d2|"D7"B4 A2|"G"G4|]

